X:1
T:Woodchopper's Reel
M:4/4
L:1/8
K:D
(fg)|afdB AdFA|DFAd f2 (ef)|gece Aceg|a^gab a2 (f=g)|!
afdB AdFA|DFAd f2 (ef)|gece Aceg|1 f2d2d 1a1 2:|2 f2d2d2 (FE)|]!
DFAd (3(BdB A)F|DFAd (3(BdB A)F|A,CEA ceaf|gfed cBAF|!
DFAd (3(BdB A)F|DFAd (3(BdB A)F|A,CEA ceaf|1 gecA d2 (FE):|2 gecA d2 (fg)|]!



